X:1
T:Amazing Grace
T: John Newton (1725–1807)
%%score { 1 | 2 }
L:1/8
Q:1/4=80
M:3/4
K:F
V:1 treble nm="Piano" snm="Pno."
V:2 bass 
V:1
 z4 !1!C2 |"F" !3!F4 !5!A!3!F | !5!A4 !4!G2 |"Bb" !3!F4 !2!D2 |"F" !1!C4 !1!C2 | !2!F4 !4!A!2!F | %6
w: A-|ma- zing _|grace how|sweet the|sound that|saved a _|
w: Twas|grace that _|taught my|heart to|fear, And|grace my _|
w: Thro'|ma- ny _|dan- gers,|toils, and|snares, I|have al- *|
w: The|Lord has _|pro- mised|good to|me, His|word my _|
w: When|we've been _|there ten|thou- sand|years, Bright|shi- ning _|
 !4!A4 !3!G2 | !5!c6- | c4 !3!A2 | !5!c2 z !3!A !5!c!3!A | !2!F4 !1!C2 | %11
w: wretch like|me.|_ I|once * was _|lost but|
w: fears re-|lieved;|_ How|pre- * ci- ous|did that|
w: rea- dy|come;|_ 'Tis|grace * hath _|bro't me|
w: hope se-|cures;|_ He|will * my _|shield and|
w: as the|sun,|_ We've|no * less _|days to|
"Bb" !2!D2 z !3!F !3!F!2!D |"F" !1!C4 !1!C2 | !3!F4 !5!A!3!F | A4 !4!G2 |"F" F6- | F6 |] %17
w: now * am _|found. Was|blind but _|now I|see.||
w: grace * ap- *|pear The|hour I _|first be-|lieved.||
w: safe * thus *|far, And|grace will _|lead me|home.||
w: por * tion *|be As|long as _|life en-|dures.||
w: sing * God's *|praise Than|when we _|first be-|gun.||
V:2
 z6 | F,,C, F,4 | F,,C, F,4 | B,,D, B,4 | F,,C, F,4 | F,,C, F,4 | F,,C, F,4 |"C" C,E, C4 | %8
 C,E, C4 |"F" F,,C, F,4 | F,,C, F,4 | B,,D, B,4 | F,,C, F,4 | F,,C, F,4 |"C" C,E, C4 | F,,C, F,4 | %16
 F,,C, F,4 |] %17

